**kern	**kern	**dynam
*part1	*part1	*part1
*staff2	*staff1	*
*I"Piano	*	*
*clefF4	*clefG2	*
*k[]	*k[]	*
=1	=1	=1
[2EE	8G#XL 8B	.
.	8e	.
.	8G# 8B	.
.	8eJ	.
8EEL]	8G#L 8B	.
24DDL	8eJ	.
24CC	.	.
24BBBJJ	.	.
=	=	=
2.AAA	8cL 8e	.
.	8a	.
.	8B 8e	.
.	8gnJ	.
.	8AL 8c	.
.	8fJ	.
=	=	=
[2EE	8G#XL 8B	.
.	8e	.
.	8G# 8B	.
.	8eJ	.
(8EEL]	8G#L 8B	.
24DDL	8eJ	.
24CC	.	.
24BBBJJ	.	.
=	=	=
4AAA)	4c 4e 4a	[ p
4r	4r	.
4EE	4e	mf
=	=	=
4AA	4a	.
4r	4r	.
4EE	4e	.
=	=	=
4AA	4a	>
4r	4r	.
4EE	4e	.
=	=	=
4AA	4a	.
4r	4r	.
4EE	4e	.
=	=	=
4AAA	4A	.
4r	4r	]
4r	4r	.
=	=	=
*-	*-	*-
!!!system-decoration: {(s1,s2)}
